X:052
%%topmargin 3cm
T:Miss Jenny Guthrie
B:The Nelson Music Collection
N:Newton F. Tolman & K. Dep. Gilbert
Z:Transcribed by Ralph Palmer
R:Hornpipe
L:1/8
M:C
K:A
{cB}A2 A,>C E/2E/2E (E>c) | e>f (f/2e/2)d/2c/2 (d/2c/2)B/2A/2 F>B | {cB}A2 A,>C E/2E/2E E>c | e>a (f/2e/2)d/2c/2 (e2 e) c |
{cB}A2 A,>C E/2E/2E E>c | e>f f/2e/2d/2c/2 d/2c/2B/2A/2 F>B | A<E C>E B,>E A,<c | d/2c/2B/2A/2 B>c A/2A/2A A2 ||
{gf}e2 f/2e/2d/2c/2 e<c a<c | B>c (d/2c/2B/2A/2) (F2 F) c | {gf}e2 (f/2e/2d/2c/2) e<c a<c | (d/2c/2B/2A/2) B>c A2 (A>c) |
e>a f/2e/2d/2c/2 d>f e/2d/2c/2B/2 | c>e d/2c/2B/2A/2 B/2c/2B/2A/2 Fc d/2c/2B/2A/2 {cB}A2 A,2 |]
